assets/images/landing/natural-cosmetics-icon.svg

<svg width="88" height="100" viewBox="0 0 88 100" fill="none" xmlns="http://www.w3.org/2000/svg">
<path d="M85.9093 56.8629H82.2953V52.9414H85.9093V49.0198H82.2953V43.1374C82.2953 42.6175 82.1049 42.1185 81.7661 41.7509C81.4273 41.3833 80.9674 41.1767 80.4883 41.1767H76.8743V35.2943C76.8718 32.6788 76.1813 30.1183 74.8841 27.9142C73.587 25.71 71.7373 23.9523 69.5519 22.8493L69.727 22.3416H69.7278C72.0841 15.5226 72.0092 7.99474 69.5173 1.23263C69.3083 0.666287 68.8687 0.237358 68.3274 0.0727869C67.7861 -0.0917797 67.2045 0.026393 66.7551 0.392293L62.4183 3.9217C59.3109 6.45054 55.8487 8.41917 52.1636 9.7525C48.4786 11.0865 44.6195 11.7658 40.7343 11.7649C36.0103 11.7641 31.4403 13.59 27.8449 16.9145C24.2487 20.2391 21.8624 24.8452 21.113 29.9065C18.7436 30.6199 16.6165 32.0643 14.9902 34.0654C13.3647 36.0664 12.3097 38.5367 11.9539 41.1766H8.2083C7.21043 41.1766 6.4013 42.0546 6.4013 43.1374V49.0198H2.7873V52.9413H6.4013V56.8629H2.7873C1.78942 56.8629 0.980301 57.7409 0.980301 58.8237V92.1569C0.982721 94.2368 1.74504 96.23 3.09955 97.7005C4.4548 99.1702 6.29164 99.9974 8.2083 100H80.4883C82.405 99.9974 84.2419 99.1702 85.5971 97.7005C86.9515 96.2299 87.7139 94.2367 87.7163 92.1569V58.8237C87.7163 58.3037 87.526 57.8048 87.1871 57.4371C86.8483 57.0695 86.3885 56.8629 85.9093 56.8629L85.9093 56.8629ZM24.4712 33.3335H47.9622V29.412H24.8781C25.6977 25.5133 27.7121 22.0318 30.5927 19.5388C33.4734 17.0449 37.0496 15.6865 40.7345 15.6865C45.0074 15.6874 49.2532 14.9398 53.3068 13.4728C57.3605 12.0065 61.1688 9.84095 64.5869 7.0591L66.936 5.14735C68.3017 10.3529 68.0944 15.8967 66.343 20.9649L66.0825 21.7186H66.0833C65.4678 21.6197 64.8474 21.5689 64.2255 21.5689H55.1905V25.4905H64.2255C66.6206 25.4931 68.9173 26.5269 70.6113 28.3651C72.3053 30.2033 73.258 32.6954 73.2605 35.2944V41.1767H15.6182C16.0376 38.9638 17.1469 36.9759 18.7595 35.5465C20.3729 34.1179 22.3896 33.3362 24.4716 33.3336L24.4712 33.3335ZM10.0152 52.9414H26.2782V49.0198H10.0152V45.0982H78.6813V49.0198H73.2603V52.9414H78.6813V56.8629H10.0152V52.9414ZM84.1023 92.157C84.1015 93.1969 83.7199 94.193 83.0423 94.9283C82.3646 95.6635 81.4466 96.0776 80.4883 96.0785H8.20827C7.24992 96.0776 6.3319 95.6636 5.6543 94.9283C4.97671 94.193 4.59511 93.1968 4.59431 92.157V60.7845H84.1023L84.1023 92.157Z" fill="#424B25"/>
<path d="M29.8923 49.0198H69.6463V52.9413H29.8923V49.0198Z" fill="#424B25"/>
<path d="M44.3482 88.2354C46.7442 88.2354 49.0423 87.2025 50.7374 85.3644C52.4314 83.5253 53.3832 81.0314 53.3832 78.4315C53.3832 75.8316 52.4313 73.338 50.7374 71.4987C49.0425 69.6604 46.7442 68.6276 44.3482 68.6276C41.9523 68.6276 39.6542 69.6605 37.9591 71.4987C36.265 73.3378 35.3132 75.8316 35.3132 78.4315C35.3157 81.0305 36.2684 83.5226 37.9624 85.3608C39.6564 87.199 41.9531 88.2327 44.3482 88.2354ZM44.3482 72.5492C45.7858 72.5492 47.1653 73.1689 48.1816 74.2719C49.1978 75.3748 49.7691 76.8718 49.7691 78.4314C49.7691 79.9911 49.198 81.4882 48.1816 82.591C47.1651 83.6937 45.7856 84.3136 44.3482 84.3136C42.9109 84.3136 41.5312 83.6939 40.5149 82.591C39.4987 81.488 38.9273 79.9911 38.9273 78.4314C38.9289 76.8716 39.5009 75.3764 40.5173 74.2743C41.533 73.1714 42.9108 72.5508 44.3484 72.549L44.3482 72.5492Z" fill="#424B25"/>
</svg>

<svg width="88" height="100" fill="none" xmlns="http://www.w3.org/2000/svg"><path d="M85.91 56.863h-3.615V52.94h3.614V49.02h-3.614v-5.883c0-.52-.19-1.019-.529-1.386a1.739 1.739 0 0 0-1.278-.574h-3.614v-5.883a14.604 14.604 0 0 0-1.99-7.38c-1.297-2.204-3.147-3.962-5.332-5.065l.175-.507a31.546 31.546 0 0 0-.21-21.11c-.209-.566-.648-.995-1.19-1.16a1.695 1.695 0 0 0-1.572.32l-4.337 3.53a35.26 35.26 0 0 1-10.254 5.83 33.522 33.522 0 0 1-11.43 2.013c-4.724 0-9.294 1.825-12.89 5.15-3.595 3.324-5.982 7.93-6.731 12.992-2.37.713-4.497 2.157-6.123 4.158-1.625 2.001-2.68 4.472-3.036 7.112H8.208c-.998 0-1.807.878-1.807 1.96v5.883H2.787v3.921h3.614v3.922H2.787c-.998 0-1.807.878-1.807 1.96v33.334c.003 2.08.765 4.073 2.12 5.544 1.355 1.47 3.192 2.296 5.108 2.299h72.28c1.917-.003 3.754-.83 5.11-2.3 1.353-1.47 2.116-3.463 2.118-5.543V58.824c0-.52-.19-1.02-.529-1.387a1.739 1.739 0 0 0-1.278-.574zM24.47 33.333h23.491v-3.921H24.878c.82-3.899 2.834-7.38 5.715-9.873 2.88-2.494 6.457-3.853 10.141-3.853a36.89 36.89 0 0 0 12.573-2.213 38.773 38.773 0 0 0 11.28-6.414l2.349-1.912a27.352 27.352 0 0 1-.593 15.818l-.26.754a11.704 11.704 0 0 0-1.858-.15h-9.034v3.922h9.034c2.396.002 4.692 1.036 6.386 2.874s2.647 4.33 2.65 6.93v5.882H15.617c.42-2.213 1.529-4.201 3.141-5.63 1.614-1.43 3.63-2.21 5.713-2.213zM10.015 52.942h16.263V49.02H10.015v-3.922h68.666v3.922h-5.42v3.921h5.42v3.922H10.015V52.94zm74.087 39.216c0 1.04-.382 2.036-1.06 2.771-.677.736-1.595 1.15-2.554 1.15H8.208c-.958 0-1.876-.414-2.554-1.15a4.1 4.1 0 0 1-1.06-2.771V60.785h79.508v31.372z" fill="#424B25"/><path d="M29.892 49.02h39.754v3.921H29.892V49.02zM44.348 88.235c2.396 0 4.694-1.032 6.39-2.87 1.693-1.84 2.645-4.334 2.645-6.933 0-2.6-.952-5.094-2.646-6.933-1.695-1.839-3.993-2.871-6.389-2.871-2.396 0-4.694 1.032-6.389 2.87-1.694 1.84-2.646 4.334-2.646 6.933.003 2.6.955 5.092 2.65 6.93 1.693 1.838 3.99 2.872 6.385 2.874zm0-15.686c1.438 0 2.817.62 3.834 1.723 1.016 1.103 1.587 2.6 1.587 4.16s-.571 3.056-1.587 4.159c-1.017 1.103-2.396 1.723-3.834 1.723-1.437 0-2.817-.62-3.833-1.723-1.016-1.103-1.588-2.6-1.588-4.16.002-1.56.574-3.055 1.59-4.157 1.016-1.103 2.394-1.723 3.831-1.725z" fill="#424B25"/></svg>
